libs/ui/packages/crypto-icons/src/svg/ETN.svg

<svg width="24" height="24" viewBox="0 0 24 24" fill="none">
<path d="M14.9093 10.1017L17.3385 7.54275C18.384 8.79099 18.9558 10.368 18.9533 11.9963C18.9533 15.834 15.8408 18.9457 12 18.9457C10.8282 18.9472 9.67521 18.6512 8.649 18.0855L14.8275 14.901L15.834 14.382L14.9018 13.7377L14.2358 13.2772L16.1783 12.2858L17.1443 11.7922L16.2788 11.1382L14.9093 10.1017ZM9.09075 14.2523L6.82575 16.6373C5.67856 15.3639 5.04465 13.7102 5.04675 11.9963C5.04675 8.15775 8.15925 5.046 12 5.046C13.3011 5.04424 14.5763 5.40919 15.6795 6.099L9.1725 9.453L8.166 9.97275L9.09825 10.6163L9.76425 11.0767L7.82175 12.069L6.85575 12.5618L7.72125 13.2165L9.09075 14.2523ZM6.402 17.085L5.93325 17.5785C4.52819 16.0593 3.74846 14.0656 3.75 11.9963C3.75 7.449 7.45125 3.75 12 3.75C13.8698 3.75 15.597 4.3755 16.9823 5.42775L16.3058 5.7765C15.0419 4.89799 13.5392 4.42788 12 4.4295C7.82625 4.4295 4.43025 7.824 4.43025 11.9963C4.43025 13.9537 5.17725 15.7395 6.40275 17.0842L6.402 17.085ZM17.763 7.095L18.234 6.6C19.5359 8.09612 20.252 10.013 20.25 11.9963C20.25 16.5427 16.5488 20.2418 12 20.2418C10.3238 20.2437 8.68713 19.7323 7.31025 18.7762L8.00325 18.4185C9.20172 19.1674 10.5868 19.5638 12 19.5623C16.1738 19.5623 19.5698 16.1677 19.5698 11.9963C19.5698 10.1287 18.8895 8.41725 17.763 7.09575V7.095ZM8.1315 12.675L11.0873 11.1652L9.4845 10.0583L18.357 5.48475L13.8923 10.1858L15.8685 11.6805L12.9128 13.1903L14.5155 14.2972L5.643 18.8707L10.1078 14.1698L8.1315 12.675Z" fill="#23BEE2"/>
</svg>

<svg width="24" height="24" viewBox="0 0 24 24" fill="none"><path fill="#23bee2" d="m14.91 10.102 2.428-2.56a6.951 6.951 0 0 1-8.69 10.543l6.18-3.184 1.006-.519-.932-.644-.666-.46 1.942-.992.966-.494-.865-.654zm-5.82 4.15-2.264 2.385a6.92 6.92 0 0 1-1.78-4.64A6.951 6.951 0 0 1 15.68 6.098L9.173 9.453l-1.007.52.932.643.666.46-1.942.993-.966.493.865.655zm-2.688 2.833-.469.493a8.2 8.2 0 0 1-2.183-5.582C3.75 7.45 7.451 3.75 12 3.75c1.87 0 3.597.625 4.982 1.678l-.676.349A7.53 7.53 0 0 0 12 4.429c-4.174 0-7.57 3.395-7.57 7.567a7.53 7.53 0 0 0 1.973 5.088zm11.361-9.99.471-.495a8.2 8.2 0 0 1 2.016 5.396c0 4.547-3.701 8.246-8.25 8.246a8.2 8.2 0 0 1-4.69-1.466l.693-.357A7.53 7.53 0 0 0 12 19.562c4.174 0 7.57-3.394 7.57-7.566a7.53 7.53 0 0 0-1.807-4.9zm-9.631 5.58 2.955-1.51-1.602-1.107 8.872-4.573-4.465 4.7 1.976 1.495-2.955 1.51 1.602 1.107-8.872 4.574 4.465-4.701z"/></svg>
